X: 38274
T: St. Elmo's Fire
R: reel
M: 4/4
K: Aminor
A,D F/E/D EDGD|A,D F/E/D EC D2|A,D F/E/D EDGB|1 cBcd BG A2:|2 cBcd BGAc||
dA A/A/A a^gaA|dA A/A/A a^ga_b|a^gaA dA A/A/A|gfed efec:|
BcBG AFED|BcBF EB A2|cBcd BGEG|1 cBcd BG Ac:|2 cBcd BG A2||

